packages/icons/src/components/Icon/assets/small-outline/delete.svg

<svg width="16" height="16" viewBox="0 0 16 16" fill="none" xmlns="http://www.w3.org/2000/svg">
<path fill-rule="evenodd" clip-rule="evenodd" d="M7.99973 2.16667C7.64027 2.16667 7.28217 2.17242 6.92552 2.18382C6.48625 2.19788 6.12593 2.56209 6.11536 3.02864C6.73894 2.99262 7.36724 2.97436 7.99973 2.97436C8.63223 2.97436 9.26052 2.99262 9.88411 3.02864C9.87354 2.56209 9.51322 2.19788 9.07395 2.18382C8.7173 2.17242 8.3592 2.16667 7.99973 2.16667ZM11.051 3.1172V3.04975C11.051 1.97406 10.2169 1.05312 9.11125 1.01775C8.74217 1.00595 8.37163 1 7.99973 1C7.62783 1 7.25729 1.00595 6.88822 1.01775C5.78256 1.05312 4.94845 1.97406 4.94845 3.04975V3.1172C4.34601 3.17389 3.74836 3.2472 3.15597 3.33666C2.92674 3.37128 2.6983 3.40831 2.47068 3.44774C2.15324 3.50273 1.94048 3.80464 1.99547 4.12208C2.05046 4.43952 2.35237 4.65228 2.66981 4.59729C2.68323 4.59496 2.69666 4.59265 2.71009 4.59034L3.36423 13.0942C3.44695 14.1696 4.34368 15 5.42225 15H10.5772C11.6558 15 12.5525 14.1696 12.6352 13.0942L13.2894 4.59034C13.3028 4.59265 13.3162 4.59496 13.3297 4.59729C13.6471 4.65228 13.949 4.43952 14.004 4.12208C14.059 3.80464 13.8462 3.50273 13.5288 3.44774C13.3012 3.40831 13.0727 3.37128 12.8435 3.33666C12.2511 3.2472 11.6535 3.17389 11.051 3.1172ZM12.1328 4.41402C11.5675 4.33874 10.9973 4.27868 10.4227 4.23427C9.62329 4.1725 8.81524 4.14103 7.99973 4.14103C7.18422 4.14103 6.37617 4.1725 5.57673 4.23427C5.00213 4.27868 4.43196 4.33874 3.86664 4.41402L4.52746 13.0047C4.56343 13.4723 4.95331 13.8333 5.42225 13.8333H10.5772C11.0462 13.8333 11.436 13.4723 11.472 13.0047L12.1328 4.41402ZM6.17381 5.44274C6.49574 5.43036 6.76675 5.68129 6.77913 6.00322L7.00694 11.9263C7.01933 12.2482 6.76839 12.5192 6.44646 12.5316C6.12453 12.544 5.85352 12.2931 5.84114 11.9711L5.61333 6.04806C5.60095 5.72613 5.85188 5.45512 6.17381 5.44274ZM9.82565 5.44274C10.1476 5.45512 10.3985 5.72613 10.3861 6.04806L10.1583 11.9711C10.1459 12.2931 9.87493 12.544 9.553 12.5316C9.23108 12.5192 8.98014 12.2482 8.99252 11.9263L9.22033 6.00322C9.23271 5.68129 9.50373 5.43036 9.82565 5.44274Z" fill="black"/>
</svg>

<svg xmlns="http://www.w3.org/2000/svg" width="16" height="16" fill="none" viewBox="0 0 16 16">
    <path d="M8 2.167q-.54 0-1.074.017a.85.85 0 0 0-.81.845 33 33 0 0 1 3.768 0 .85.85 0 0 0-.81-.845A34 34 0 0 0 8 2.167m3.051.95V3.05c0-1.076-.834-1.997-1.94-2.032a35 35 0 0 0-2.223 0c-1.105.035-1.94.956-1.94 2.032v.067a32 32 0 0 0-2.477.33.583.583 0 1 0 .24 1.143l.653 8.504A2.064 2.064 0 0 0 5.422 15h5.155c1.079 0 1.976-.83 2.058-1.906l.654-8.504.04.007a.583.583 0 0 0 .2-1.15 32 32 0 0 0-2.478-.33m1.082 1.297A31 31 0 0 0 8 4.141a31.5 31.5 0 0 0-4.133.273l.66 8.59a.897.897 0 0 0 .895.83h5.155a.897.897 0 0 0 .895-.83zm-5.96 1.029a.583.583 0 0 1 .606.56l.228 5.923a.583.583 0 0 1-1.166.045l-.228-5.923a.583.583 0 0 1 .56-.605m3.653 0a.583.583 0 0 1 .56.605l-.228 5.923a.583.583 0 1 1-1.165-.045l.227-5.923a.583.583 0 0 1 .606-.56" clip-rule="evenodd"/>
</svg>
